X:790
T:Waltzing Matilda
C:Traditional Australian
S:Colin Hume's website,  colinhume.com  - chords can also be printed below the stave.
Q:1/4=140
M:4/4
K:G
P:A
"G"B2B2 "D"A2A2 | "Em"G>AB>G "C"E>FG2 | "G"D2G>B "Em"d2d>d | "Am"d2d2 "D"d2G>A |\
"G"B2B2 "B7"A2A2 | "Em"G>AB>G "C"E>FG2 | "G"D2G>B "/"d2c>B | "D"A2A2 "G"G4 |
P:B
"G"d2d>d "G7"d2B2 | "C"g2g>g "D7"f2e2 | "G"d2d>d "Em"e2d>d | "Am"d2c>B "D"A2G>A |\
"G"B2B2 "B7"A2A2 | "Em"G>AB>G "C"E>FG2 | "G"D2G>B "/"d2c>B | "D"A2A2 "G"G4 ||

